!!!OTL: Xingjunge
!!!ARE: Asia, China,ÿHubei Dawu
!! I, 402
!!!SCT: C2151
!!!YEM: Copyright 1995, estate of Helmut Schaffrath.
**kern
*ICvox
*Ivox
*M2/4
*k[]
*C:
{8dd
16ee
16dd
8cc
8a
=1
8dd
16ee
16dd
8cc
8a
=2
8.dd
16dd
8cc
8ee
=3
2dd}
=4
{4dd
8cc
8a
=5
4dd
8cc
8a
=6
8cc
8cc
8cc
8a
=7
2g}
==
!!!AGN: Xiaodiao
!!!ONB: ESAC (Essen Associative Code) Database: SENGANSU
!!!AMT: simple duple
!!!AIN: vox
!!!EED: Helmut Schaffrath
!!!EEV: 1.0
*-
